X:303
T:Alle die mit uns Kaperfahrt fahren
Z:Jack Campin, http://www.campin.me.uk/
F:Jack Campin's Nine-Note Tunebook
% last edit 29-11-2013
G:sea song
M:6/8
L:1/8
Q:3/8=80
K:GDor
GGA BBc|BBA G2D|G2A BBc|B2A G3:|
B2c d2c|B2c d2z|GAB A2A|ABc B2G|
B2c d2c|B2c d2z|GAB A2c|B2A G3|]

